!!!OTL: He's Got the Whole World in His Hands
!!!COM: unknown
!!!ODT: unknown
!!!YOR: The Folksong Fake Book
!!!YOY: 2000
!!!AST: Spiritual
!!!YEC: Brian Luke, 2001
**kern	**harm
*k[]	*k[]
*M4/4	*M4/4
*C:	*C:
*>A	*>A
16g	.
8.g	.
16e	.
=1	=1
2g	I
8e	.
4.c	.
=2	=2
8.r	.
16g	.
8.a	.
[16g	.
8.g]	.
16g	.
8.g	.
16e	.
=3	=3
4f	ii7
4f	.
8d	V
4.B	.
=4	=4
8.r	ii7
16g	.
8.a	.
[16g	.
8.g]	V7
16g	.
8.g	.
16e	.
=5	=5
2g	I
8e	.
4.c	.
=6	=6
8.r	.
16g	.
8.a	.
[16g	.
8.g]	.
16g	.
8.g	.
16e	.
=7	=7
4g	V7
4g	.
8f	.
4.d	.
=8	=8
2c	I;
8.r	.
*-	*-
